src/components/assets/work-conditions/6.svg

<svg width="113" height="113" viewBox="0 0 113 113" fill="none" xmlns="http://www.w3.org/2000/svg">
<path opacity="0.9" fill-rule="evenodd" clip-rule="evenodd" d="M104.659 35.6301L105.816 36.7875L92.0932 50.676L89.7784 52.9908L87.4636 50.676L71.6738 34.8862L66.4657 40.0943L69.3591 42.9877L83.9915 57.6201C86.6368 60.2655 86.6368 64.5643 83.9915 67.2097L67.2097 83.9915C64.5643 86.6368 60.2655 86.6368 57.6201 83.9915L40.8383 67.2097L40.0942 66.4656L34.8862 71.6736L39.1022 75.8897L40.7556 77.5431L51.7507 88.5381L52.9081 89.6955L39.1025 103.501L36.7877 105.816L34.4729 103.501L0 68.9458L1.15739 67.8711L13.8056 55.2226L16.1204 52.9079L32.4062 69.111L37.5787 63.9501L25.5445 51.9159C18.1044 44.4757 17.9392 32.4887 25.2139 25.2139C32.4887 17.939 44.4757 18.1044 51.9159 25.5445L63.9798 37.6085L69.1939 32.4062L52.9081 16.1204L54.0655 14.963L66.7137 2.31479L67.8711 1.15739L69.0285 0L92.7542 23.7257L94.3249 25.2964L104.659 35.6301ZM63.9798 37.6085L37.5787 63.9501L40.0942 66.4656L66.4657 40.0943L63.9798 37.6085ZM16.1204 57.4547L25.2966 66.631L20.6673 71.2603L11.491 62.0841L16.1204 57.4547ZM18.4352 73.5751L9.17624 64.3989L4.62958 68.9455L13.8058 78.2045L18.4352 73.5751ZM16.1204 80.5193L20.7498 75.8899L29.926 85.0662L25.2966 89.6955L16.1204 80.5193ZM27.6114 92.0103L36.7877 101.187L41.417 96.557L32.2408 87.3807L27.6114 92.0103ZM39.1022 80.5193L48.2785 89.6955L43.6491 94.3249L34.4729 85.0659C34.4729 85.0662 39.1022 80.5193 39.1022 80.5193ZM32.2408 82.7514L36.7877 78.2045L27.6112 68.9458L22.9818 73.5751L32.2408 82.7514ZM101.187 36.7875L96.5572 41.4168L87.3809 32.2406L92.0103 27.6112L101.187 36.7875ZM85.0662 29.926L89.6955 25.2966L80.5193 16.0377L75.8899 20.6671L85.0662 29.926ZM69.0285 4.62936L78.2047 13.8056L73.5753 18.435L64.3991 9.25874L69.0285 4.62936ZM62.1668 11.491L57.5374 16.1204L66.7137 25.2966L71.343 20.6673L62.1668 11.491ZM69.0285 27.6114L73.6578 22.9821L82.8341 32.241L78.2047 36.8704L69.0285 27.6114ZM85.1486 34.4729L80.5193 39.1022L89.6955 48.2785L94.3249 43.6491L85.1486 34.4729Z" fill="#373636"/>
<g filter="url(#filter0_d)">
<path d="M89.6955 95.0688C92.6715 95.0688 95.069 92.6714 95.069 89.6954C95.069 86.7194 92.6715 84.3219 89.6955 84.3219C86.7195 84.3219 84.322 86.7194 84.322 89.6954C84.322 92.6714 86.7195 95.0688 89.6955 95.0688Z" fill="#FF736F"/>
</g>
<g filter="url(#filter1_df)">
<path d="M89.6955 95.0688C92.6715 95.0688 95.069 92.6714 95.069 89.6954C95.069 86.7194 92.6715 84.3219 89.6955 84.3219C86.7195 84.3219 84.322 86.7194 84.322 89.6954C84.322 92.6714 86.7195 95.0688 89.6955 95.0688Z" fill="url(#paint0_linear)"/>
</g>
<path d="M55.2226 28.8513C47.7825 21.4112 35.7954 21.2458 28.5207 28.5207C21.2459 35.7955 21.4111 47.7825 28.8513 55.2227L25.5445 51.9159C18.1044 44.4757 17.9392 32.4887 25.2139 25.214C32.4887 17.9392 44.4757 18.1044 51.9158 25.5445L55.2226 28.8513Z" fill="#292828"/>
<g filter="url(#filter2_d)">
<path d="M28.1074 54.4785L25.5448 51.9158C25.2967 51.6677 25.1315 51.4198 24.8834 51.2544L51.172 24.9658C51.4201 25.2139 51.668 25.3791 51.8334 25.6272L54.3961 28.1899L28.1074 54.4785Z" fill="#FF736F"/>
</g>
<g filter="url(#filter3_df)">
<path d="M28.1074 54.4785L25.5448 51.9158C25.2967 51.6677 25.1315 51.4198 24.8834 51.2544L51.172 24.9658C51.4201 25.2139 51.668 25.3791 51.8334 25.6272L54.3961 28.1899L28.1074 54.4785Z" fill="url(#paint1_linear)"/>
</g>
<path d="M104.163 76.7163C97.3011 69.8548 85.5622 70.4335 77.9566 77.9564C70.3511 85.5619 69.7724 97.2181 76.7165 104.08L104.163 76.7163Z" fill="#373636"/>
<defs>
<filter id="filter0_d" x="80.322" y="82.3218" width="18.7469" height="18.7469" filterUnits="userSpaceOnUse" color-interpolation-filters="sRGB">
<feFlood flood-opacity="0" result="BackgroundImageFix"/>
<feColorMatrix in="SourceAlpha" type="matrix" values="0 0 0 0 0 0 0 0 0 0 0 0 0 0 0 0 0 0 127 0"/>
<feOffset dy="2"/>
<feGaussianBlur stdDeviation="2"/>
<feColorMatrix type="matrix" values="0 0 0 0 0 0 0 0 0 0 0 0 0 0 0 0 0 0 0.5 0"/>
<feBlend mode="normal" in2="BackgroundImageFix" result="effect1_dropShadow"/>
<feBlend mode="normal" in="SourceGraphic" in2="effect1_dropShadow" result="shape"/>
</filter>
<filter id="filter1_df" x="67.1968" y="67.1966" width="44.9973" height="44.9973" filterUnits="userSpaceOnUse" color-interpolation-filters="sRGB">
<feFlood flood-opacity="0" result="BackgroundImageFix"/>
<feColorMatrix in="SourceAlpha" type="matrix" values="0 0 0 0 0 0 0 0 0 0 0 0 0 0 0 0 0 0 127 0"/>
<feOffset dy="2"/>
<feGaussianBlur stdDeviation="2"/>
<feColorMatrix type="matrix" values="0 0 0 0 0 0 0 0 0 0 0 0 0 0 0 0 0 0 0.5 0"/>
<feBlend mode="normal" in2="BackgroundImageFix" result="effect1_dropShadow"/>
<feBlend mode="normal" in="SourceGraphic" in2="effect1_dropShadow" result="shape"/>
<feGaussianBlur stdDeviation="8.56259" result="effect2_foregroundBlur"/>
</filter>
<filter id="filter2_d" x="20.8834" y="22.9658" width="37.5127" height="37.5127" filterUnits="userSpaceOnUse" color-interpolation-filters="sRGB">
<feFlood flood-opacity="0" result="BackgroundImageFix"/>
<feColorMatrix in="SourceAlpha" type="matrix" values="0 0 0 0 0 0 0 0 0 0 0 0 0 0 0 0 0 0 127 0"/>
<feOffset dy="2"/>
<feGaussianBlur stdDeviation="2"/>
<feColorMatrix type="matrix" values="0 0 0 0 0 0 0 0 0 0 0 0 0 0 0 0 0 0 0.5 0"/>
<feBlend mode="normal" in2="BackgroundImageFix" result="effect1_dropShadow"/>
<feBlend mode="normal" in="SourceGraphic" in2="effect1_dropShadow" result="shape"/>
</filter>
<filter id="filter3_df" x="7.75819" y="7.84064" width="63.7631" height="63.7631" filterUnits="userSpaceOnUse" color-interpolation-filters="sRGB">
<feFlood flood-opacity="0" result="BackgroundImageFix"/>
<feColorMatrix in="SourceAlpha" type="matrix" values="0 0 0 0 0 0 0 0 0 0 0 0 0 0 0 0 0 0 127 0"/>
<feOffset dy="2"/>
<feGaussianBlur stdDeviation="2"/>
<feColorMatrix type="matrix" values="0 0 0 0 0 0 0 0 0 0 0 0 0 0 0 0 0 0 0.5 0"/>
<feBlend mode="normal" in2="BackgroundImageFix" result="effect1_dropShadow"/>
<feBlend mode="normal" in="SourceGraphic" in2="effect1_dropShadow" result="shape"/>
<feGaussianBlur stdDeviation="8.56259" result="effect2_foregroundBlur"/>
</filter>
<linearGradient id="paint0_linear" x1="92.3822" y1="100.25" x2="82.0198" y2="94.8766" gradientUnits="userSpaceOnUse">
<stop stop-color="#FF7C56"/>
<stop offset="1" stop-color="#FF5D5D"/>
</linearGradient>
<linearGradient id="paint1_linear" x1="47.0179" y1="68.7069" x2="18.5611" y2="53.9506" gradientUnits="userSpaceOnUse">
<stop stop-color="#FF7C56"/>
<stop offset="1" stop-color="#FF5D5D"/>
</linearGradient>
</defs>
</svg>

<svg width="113" height="113" fill="none" xmlns="http://www.w3.org/2000/svg"><path opacity=".9" fill-rule="evenodd" clip-rule="evenodd" d="M104.659 35.63l1.157 1.157-13.723 13.889-2.315 2.315-2.314-2.315-15.79-15.79-5.208 5.208 2.893 2.894L83.992 57.62a6.786 6.786 0 0 1 0 9.59L67.21 83.992a6.786 6.786 0 0 1-9.59 0L40.838 67.21l-.744-.744-5.208 5.208 4.216 4.216 1.654 1.653L51.75 88.538l1.157 1.157-13.806 13.806-2.314 2.315-2.315-2.315L0 68.946l1.157-1.075 12.649-12.648 2.314-2.315L32.406 69.11l5.173-5.16-12.035-12.035c-7.44-7.44-7.605-19.427-.33-26.702 7.275-7.275 19.262-7.11 26.702.33L63.98 37.608l5.214-5.202L52.908 16.12l1.157-1.157L66.715 2.315l1.157-1.158L69.028 0l23.726 23.726 1.57 1.57L104.66 35.63zm-40.68 1.978L37.58 63.95l2.515 2.516 26.372-26.372-2.486-2.486zM16.12 57.456l9.177 9.176-4.63 4.63-9.176-9.177 4.63-4.63zm2.315 16.12L9.176 64.4 4.63 68.945l9.176 9.26 4.63-4.63zM16.12 80.52l4.63-4.63 9.176 9.177-4.63 4.63-9.176-9.177zM27.611 92.01l9.177 9.177 4.629-4.63-9.176-9.176-4.63 4.63zm11.491-11.49l9.177 9.175-4.63 4.63-9.176-9.26 4.63-4.546zm-6.861 2.231l4.547-4.547-9.177-9.258-4.63 4.63 9.26 9.175zm68.946-45.964l-4.63 4.63-9.176-9.176 4.63-4.63 9.176 9.177zm-16.12-6.861l4.629-4.63-9.177-9.258-4.63 4.63 9.177 9.258zM69.028 4.629l9.176 9.177-4.63 4.629L64.4 9.259l4.63-4.63zm-6.862 6.862l-4.63 4.63 9.177 9.176 4.629-4.63-9.176-9.176zm6.861 16.12l4.63-4.629 9.176 9.259-4.63 4.63-9.175-9.26zm16.12 6.862l-4.629 4.63 9.176 9.175 4.63-4.629-9.176-9.176z" fill="#373636"/><g filter="url(#filter0_d)"><path d="M89.695 95.069a5.363 5.363 0 0 0 5.374-5.374 5.363 5.363 0 0 0-5.374-5.373 5.363 5.363 0 0 0-5.373 5.373 5.363 5.363 0 0 0 5.373 5.374z" fill="#FF736F"/></g><g filter="url(#filter1_df)"><path d="M89.695 95.069a5.363 5.363 0 0 0 5.374-5.374 5.363 5.363 0 0 0-5.374-5.373 5.363 5.363 0 0 0-5.373 5.373 5.363 5.363 0 0 0 5.373 5.374z" fill="url(#paint0_linear)"/></g><path d="M55.223 28.851c-7.44-7.44-19.428-7.605-26.702-.33-7.275 7.274-7.11 19.261.33 26.702l-3.306-3.307c-7.44-7.44-7.606-19.427-.331-26.702 7.275-7.275 19.262-7.11 26.702.33l3.307 3.307z" fill="#292828"/><g filter="url(#filter2_d)"><path d="M28.107 54.478l-2.562-2.562c-.248-.248-.414-.496-.662-.662l26.289-26.288c.248.248.496.413.661.661l2.563 2.563-26.289 26.288z" fill="#FF736F"/></g><g filter="url(#filter3_df)"><path d="M28.107 54.478l-2.562-2.562c-.248-.248-.414-.496-.662-.662l26.289-26.288c.248.248.496.413.661.661l2.563 2.563-26.289 26.288z" fill="url(#paint1_linear)"/></g><path d="M104.163 76.716c-6.862-6.861-18.6-6.282-26.206 1.24-7.606 7.606-8.185 19.262-1.24 26.124l27.446-27.364z" fill="#373636"/><defs><filter id="filter0_d" x="80.322" y="82.322" width="18.747" height="18.747" filterUnits="userSpaceOnUse" color-interpolation-filters="sRGB"><feFlood flood-opacity="0" result="BackgroundImageFix"/><feColorMatrix in="SourceAlpha" values="0 0 0 0 0 0 0 0 0 0 0 0 0 0 0 0 0 0 127 0"/><feOffset dy="2"/><feGaussianBlur stdDeviation="2"/><feColorMatrix values="0 0 0 0 0 0 0 0 0 0 0 0 0 0 0 0 0 0 0.5 0"/><feBlend in2="BackgroundImageFix" result="effect1_dropShadow"/><feBlend in="SourceGraphic" in2="effect1_dropShadow" result="shape"/></filter><filter id="filter1_df" x="67.197" y="67.197" width="44.997" height="44.997" filterUnits="userSpaceOnUse" color-interpolation-filters="sRGB"><feFlood flood-opacity="0" result="BackgroundImageFix"/><feColorMatrix in="SourceAlpha" values="0 0 0 0 0 0 0 0 0 0 0 0 0 0 0 0 0 0 127 0"/><feOffset dy="2"/><feGaussianBlur stdDeviation="2"/><feColorMatrix values="0 0 0 0 0 0 0 0 0 0 0 0 0 0 0 0 0 0 0.5 0"/><feBlend in2="BackgroundImageFix" result="effect1_dropShadow"/><feBlend in="SourceGraphic" in2="effect1_dropShadow" result="shape"/><feGaussianBlur stdDeviation="8.563" result="effect2_foregroundBlur"/></filter><filter id="filter2_d" x="20.883" y="22.966" width="37.513" height="37.513" filterUnits="userSpaceOnUse" color-interpolation-filters="sRGB"><feFlood flood-opacity="0" result="BackgroundImageFix"/><feColorMatrix in="SourceAlpha" values="0 0 0 0 0 0 0 0 0 0 0 0 0 0 0 0 0 0 127 0"/><feOffset dy="2"/><feGaussianBlur stdDeviation="2"/><feColorMatrix values="0 0 0 0 0 0 0 0 0 0 0 0 0 0 0 0 0 0 0.5 0"/><feBlend in2="BackgroundImageFix" result="effect1_dropShadow"/><feBlend in="SourceGraphic" in2="effect1_dropShadow" result="shape"/></filter><filter id="filter3_df" x="7.758" y="7.841" width="63.763" height="63.763" filterUnits="userSpaceOnUse" color-interpolation-filters="sRGB"><feFlood flood-opacity="0" result="BackgroundImageFix"/><feColorMatrix in="SourceAlpha" values="0 0 0 0 0 0 0 0 0 0 0 0 0 0 0 0 0 0 127 0"/><feOffset dy="2"/><feGaussianBlur stdDeviation="2"/><feColorMatrix values="0 0 0 0 0 0 0 0 0 0 0 0 0 0 0 0 0 0 0.5 0"/><feBlend in2="BackgroundImageFix" result="effect1_dropShadow"/><feBlend in="SourceGraphic" in2="effect1_dropShadow" result="shape"/><feGaussianBlur stdDeviation="8.563" result="effect2_foregroundBlur"/></filter><linearGradient id="paint0_linear" x1="92.382" y1="100.25" x2="82.02" y2="94.877" gradientUnits="userSpaceOnUse"><stop stop-color="#FF7C56"/><stop offset="1" stop-color="#FF5D5D"/></linearGradient><linearGradient id="paint1_linear" x1="47.018" y1="68.707" x2="18.561" y2="53.951" gradientUnits="userSpaceOnUse"><stop stop-color="#FF7C56"/><stop offset="1" stop-color="#FF5D5D"/></linearGradient></defs></svg>
